images/wpF.svg

<svg width="33" height="32" viewBox="0 0 33 32" fill="none" xmlns="http://www.w3.org/2000/svg">
<path d="M27.609 4.65C24.6162 1.65 20.6304 0 16.3947 0C7.65188 0 0.537588 7.11429 0.537588 15.8572C0.537588 18.65 1.26614 21.3786 2.65183 23.7857L0.401855 32L8.809 29.7929C11.1233 31.0571 13.7304 31.7214 16.3876 31.7214H16.3947C25.1304 31.7214 32.4019 24.6071 32.4019 15.8643C32.4019 11.6286 30.6019 7.65001 27.609 4.65ZM16.3947 29.05C14.0233 29.05 11.7019 28.4143 9.68045 27.2143L9.20183 26.9286L4.21615 28.2357L5.54474 23.3714L5.23043 22.8714C3.909 20.7714 3.21613 18.35 3.21613 15.8572C3.21613 8.59288 9.13041 2.6786 16.4019 2.6786C19.9233 2.6786 23.2304 4.05002 25.7161 6.54284C28.2018 9.0357 29.7304 12.3429 29.7233 15.8643C29.7233 23.1357 23.659 29.05 16.3947 29.05ZM23.6233 19.1786C23.2304 18.9786 21.2804 18.0214 20.9161 17.8928C20.5519 17.7572 20.2876 17.6928 20.0233 18.0929C19.759 18.4929 19.0019 19.3786 18.7661 19.65C18.5376 19.9143 18.3018 19.95 17.909 19.75C15.5804 18.5857 14.0519 17.6714 12.5161 15.0357C12.109 14.3357 12.9233 14.3857 13.6804 12.8714C13.809 12.6072 13.7447 12.3786 13.6447 12.1785C13.5447 11.9786 12.7519 10.0286 12.4233 9.2357C12.1018 8.4643 11.7733 8.57145 11.5304 8.55714C11.3019 8.54288 11.0376 8.54288 10.7733 8.54288C10.509 8.54288 10.0804 8.64287 9.71613 9.0357C9.35188 9.43569 8.33044 10.3929 8.33044 12.3429C8.33044 14.2928 9.75186 16.1786 9.9447 16.4429C10.1447 16.7071 12.7376 20.7072 16.7162 22.4286C19.2304 23.5143 20.2162 23.6071 21.4733 23.4214C22.2376 23.3071 23.8161 22.4643 24.1447 21.5357C24.4733 20.6072 24.4733 19.8143 24.3733 19.65C24.2804 19.4714 24.0161 19.3714 23.6233 19.1786Z" fill="url(#paint0_linear_36_1301)"/>
<defs>
<linearGradient id="paint0_linear_36_1301" x1="20.9165" y1="5.87186" x2="12.6869" y2="26.1496" gradientUnits="userSpaceOnUse">
<stop offset="0.1177" stop-color="#7ACA37"/>
<stop offset="0.2561" stop-color="#70C53A"/>
<stop offset="0.4886" stop-color="#56B641"/>
<stop offset="0.7848" stop-color="#2C9F4E"/>
<stop offset="1" stop-color="#098C58"/>
</linearGradient>
</defs>
</svg>

<svg width="33" height="32" fill="none" xmlns="http://www.w3.org/2000/svg"><path d="M27.609 4.65C24.616 1.65 20.63 0 16.395 0 7.652 0 .538 7.114.538 15.857c0 2.793.728 5.522 2.114 7.929L.402 32l8.407-2.207a15.81 15.81 0 0 0 7.579 1.928h.007c8.735 0 16.007-7.114 16.007-15.857 0-4.235-1.8-8.214-4.793-11.214Zm-11.214 24.4c-2.372 0-4.693-.636-6.715-1.836l-.478-.285-4.986 1.307 1.329-4.865-.315-.5a13.136 13.136 0 0 1-2.014-7.014C3.216 8.593 9.13 2.68 16.402 2.68c3.521 0 6.828 1.371 9.314 3.864 2.486 2.493 4.014 5.8 4.007 9.321 0 7.272-6.064 13.186-13.328 13.186Zm7.228-9.871c-.393-.2-2.343-1.158-2.707-1.286-.364-.136-.628-.2-.893.2-.264.4-1.021 1.286-1.257 1.557-.228.264-.464.3-.857.1-2.329-1.164-3.857-2.079-5.393-4.714-.407-.7.407-.65 1.164-2.165.129-.264.065-.492-.035-.693-.1-.2-.893-2.15-1.222-2.942-.321-.772-.65-.665-.893-.679-.228-.014-.492-.014-.757-.014-.264 0-.693.1-1.057.493-.364.4-1.386 1.357-1.386 3.307s1.422 3.836 1.615 4.1c.2.264 2.793 4.264 6.771 5.986 2.514 1.085 3.5 1.178 4.757.992.765-.114 2.343-.957 2.672-1.885.328-.929.328-1.722.228-1.886-.093-.179-.357-.279-.75-.471Z" fill="url(#a)"/><defs><linearGradient id="a" x1="20.916" y1="5.872" x2="12.687" y2="26.15" gradientUnits="userSpaceOnUse"><stop offset=".118" stop-color="#7ACA37"/><stop offset=".256" stop-color="#70C53A"/><stop offset=".489" stop-color="#56B641"/><stop offset=".785" stop-color="#2C9F4E"/><stop offset="1" stop-color="#098C58"/></linearGradient></defs></svg>
